X:17
T:Stanes Morris
B:Barlow.97
Z:Tom Novelli
M:C
L:1/8
K:Gdor
d2g2e2^f2|g2fed3e|fgf_ed2cB|AGABG4:||:Bcd_ed2cB|AGABG4:||:B2B2F2F2|GABcd3e|fgd_ed2cB|AGABG4:|
